packages/calcite-ui-icons/icons/end-point-arc-segment-24.svg

<?xml version="1.0" encoding="UTF-8"?><svg id="icons" xmlns="http://www.w3.org/2000/svg" viewBox="0 0 24 24"><defs><style>.cls-1{fill:none;}</style></defs><rect class="cls-1" width="24" height="24"/><path d="M16.74756,2.55273l.25.96875c-.47803.12305-.94971.26562-1.4126.42578l-.32617-.94531c.48828-.16797.98438-.31836,1.48877-.44922ZM6,7h3v3h-1.90148c-2.24329,2.79474-3.71644,6.25397-4.0655,10h.96698v3H1v-3h1.03046c.33673-3.80695,1.76245-7.30896,3.96954-10.20227v-2.79773ZM3,21h-1v1h1v-1ZM7,9h1v-1h-1v1ZM23,1v3h-3v-.98859l-.09863-.00165c-.49365.04688-.98145.11426-1.4624.19727l-.17188-.98438c.50635-.08887,1.01953-.1582,1.53857-.20898l.19434-.013v-1.00067h3ZM22,2h-1v1h1v-1ZM9.79639,5.92188l.60352.79688c.39209-.29688.7959-.57812,1.21045-.84375l-.53906-.8418c-.43701.2793-.8623.57617-1.2749.88867ZM12.41211,4.24707l.4707.88281c.43311-.23145.87598-.44629,1.32812-.64453l-.40039-.91602c-.47656.20801-.94287.43457-1.39844.67773Z"/></svg>

<svg xmlns="http://www.w3.org/2000/svg" viewBox="0 0 24 24"><path fill="none" d="M0 0h24v24H0z"/><path d="M16.748 2.553l.25.968c-.478.124-.95.266-1.413.426l-.326-.945c.488-.168.984-.318 1.489-.45zM6 7h3v3H7.099a18.776 18.776 0 0 0-4.066 10H4v3H1v-3h1.03A19.644 19.644 0 0 1 6 9.798V7zM3 21H2v1h1v-1zM7 9h1V8H7v1zm16-8v3h-3v-.989l-.099-.001a19.36 19.36 0 0 0-1.462.197l-.172-.984c.506-.09 1.02-.159 1.539-.21L20 2.002V1h3zm-1 1h-1v1h1V2zM9.796 5.922l.604.797c.392-.297.796-.578 1.21-.844l-.539-.842c-.437.28-.862.576-1.275.889zm2.616-1.675l.47.883a19.03 19.03 0 0 1 1.329-.645l-.4-.916c-.477.208-.943.435-1.399.678z"/></svg>
